!!!OTL-incipit: SCHWESTERLEIN WANN GEHN WIR NACH HAUS
!!!ARE: Europa, Mitteleuropa, Deutschland, Niederrhein
!!!SCT: Z0068
!!!TXL: @@DE
!!!YEM: Copyright 1995, estate of Helmut Schaffrath.
**kern	**text
*ICvox	*
*M3/4	*
*k[]	*
*a:	*
=1	=1
!LO:TX:a:t=Niederrhein.	!
{8.e	Schweſter-
16a	.
2cc	-lein,
=2	=2
8.e	Schweſter-
16a	.
4cc}	-lein,
{8eL	wann
8aJ	.
=3	=3
(8ccL	geh'n
8bJ)	.
4a	wir
4g#	nach
=4	=4
2a	Haus?
4r}	.
=5	=5
{8gn	Morgen
8g	.
4cc	wenn
8ee	die
8ee	Hah-
=6	=6
(8eeL	-nen
8ddJ)	.
(8ccL	.
8bJ)	.
4cc}	krähn,
=7	=7
{4gn	woll'n
4cc	wir
4ee	nach
=8	=8
(8eeL	Hau-
8ddJ)	.
(8ccL	-ſe
8bJ)	.
4cc}	gehn,
=9	=9
{8.cc	Brü-
16cc	-der-
2a	-lein,
=10	=10
8.g#	Brü-
16g#	-der-
2b/}	-lein,
=11	=11
{8cc	dann
8b	geh'n
4a	wir
4g#	nach
=12	=12
2.a}	Haus.
==	==
!!!Ag: Sagen - Lied, Romanze, Tod
!!!ONB: ESAC (Essen Associative Code) Database: ZUCCAL
!!!AMT: simple triple
!!!AIN: vox
!!!EED: Helmut Schaffrath
!!!EEV: 1.0
!!!GTL: I. Ernste Romanzen und Sagen.
!!!URL-scan: https://www.digitale-sammlungen.de/de/view/bsb11160571?page=141
!!!ENC: Anna Maria Matuszewska
!!!EEV: 2025/01/24
*-	*-
